www/assets/duotune/general/gen055.svg

<svg width="24" height="24" viewBox="0 0 24 24" fill="none" xmlns="http://www.w3.org/2000/svg">
<path opacity="0.3" fill-rule="evenodd" clip-rule="evenodd" d="M2 4.63158C2 3.1782 3.1782 2 4.63158 2H13.47C14.0155 2 14.278 2.66919 13.8778 3.04006L12.4556 4.35821C11.9009 4.87228 11.1726 5.15789 10.4163 5.15789H7.1579C6.05333 5.15789 5.15789 6.05333 5.15789 7.1579V16.8421C5.15789 17.9467 6.05333 18.8421 7.1579 18.8421H16.8421C17.9467 18.8421 18.8421 17.9467 18.8421 16.8421V13.7518C18.8421 12.927 19.1817 12.1387 19.7809 11.572L20.9878 10.4308C21.3703 10.0691 22 10.3403 22 10.8668V19.3684C22 20.8218 20.8218 22 19.3684 22H4.63158C3.1782 22 2 20.8218 2 19.3684V4.63158Z" fill="currentColor"/>
<path d="M10.9256 11.1882C10.5351 10.7977 10.5351 10.1645 10.9256 9.77397L18.0669 2.6327C18.8479 1.85165 20.1143 1.85165 20.8953 2.6327L21.3665 3.10391C22.1476 3.88496 22.1476 5.15129 21.3665 5.93234L14.2252 13.0736C13.8347 13.4641 13.2016 13.4641 12.811 13.0736L10.9256 11.1882Z" fill="currentColor"/>
<path d="M8.82343 12.0064L8.08852 14.3348C7.8655 15.0414 8.46151 15.7366 9.19388 15.6242L11.8974 15.2092C12.4642 15.1222 12.6916 14.4278 12.2861 14.0223L9.98595 11.7221C9.61452 11.3507 8.98154 11.5055 8.82343 12.0064Z" fill="currentColor"/>
</svg>

<?xml version="1.0" encoding="UTF-8"?>
<svg id="Camada_1" xmlns="http://www.w3.org/2000/svg" version="1.1" viewBox="0 0 24 24">
  <!-- Generator: Adobe Illustrator 29.0.0, SVG Export Plug-In . SVG Version: 2.1.0 Build 186)  -->
  <defs>
    <style>
      .st0, .st1 {
        fill: #fff;
      }

      .st1 {
        fill-rule: evenodd;
        isolation: isolate;
        opacity: .3;
      }
    </style>
  </defs>
  <path class="st1" d="M2,4.6c0-1.5,1.2-2.6,2.6-2.6h8.8c.5,0,.8.7.4,1l-1.4,1.3c-.6.5-1.3.8-2,.8h-3.3c-1.1,0-2,.9-2,2v9.7c0,1.1.9,2,2,2h9.7c1.1,0,2-.9,2-2v-3.1c0-.8.3-1.6.9-2.2l1.2-1.1c.4-.4,1,0,1,.4v8.5c0,1.5-1.2,2.6-2.6,2.6H4.6c-1.5,0-2.6-1.2-2.6-2.6V4.6Z"/>
  <path class="st0" d="M10.9,11.2c-.4-.4-.4-1,0-1.4l7.1-7.1c.8-.8,2-.8,2.8,0l.5.5c.8.8.8,2,0,2.8l-7.1,7.1c-.4.4-1,.4-1.4,0l-1.9-1.9Z"/>
  <path class="st0" d="M8.8,12l-.7,2.3c-.2.7.4,1.4,1.1,1.3l2.7-.4c.6,0,.8-.8.4-1.2l-2.3-2.3c-.4-.4-1-.2-1.2.3Z"/>
</svg>
